X: 1
T: Fisher Lads
M: 4/4
L: 1/8
R: hornpipe
K: Amaj 
cd|e^dec agaf|e^dec agaf|e^dfe e=ddc|cBdc B2cd|
e^dec agaf|e^dec agaf|ecfd cABG|A/B/c/d/ e>c A2:|
|:ED|CEAc Eace|Acea ceac|e^dfe e=ddc|cB/c/ d>c B2ED|
CEAc Eace|Acea ceac|ecfd cABG|A/B/c/d/ e>c A2:|
